src/assets/filled/Tag2.svg

<svg width="24" height="24" viewBox="0 0 24 24"  xmlns="http://www.w3.org/2000/svg">
<path d="M19.83 8.69999L15.3 4.16999C14.35 3.21999 13.04 2.70999 11.7 2.77999L6.69998 3.01999C4.69998 3.10999 3.10998 4.69999 3.00998 6.68999L2.76998 11.69C2.70998 13.03 3.20998 14.34 4.15998 15.29L8.68997 19.82C10.55 21.68 13.57 21.68 15.44 19.82L19.83 15.43C21.7 13.58 21.7 10.56 19.83 8.69999ZM9.49998 12.38C7.91998 12.38 6.61998 11.09 6.61998 9.49999C6.61998 7.90999 7.91998 6.61999 9.49998 6.61999C11.08 6.61999 12.38 7.90999 12.38 9.49999C12.38 11.09 11.08 12.38 9.49998 12.38ZM17.53 13.53L13.53 17.53C13.38 17.68 13.19 17.75 13 17.75C12.81 17.75 12.62 17.68 12.47 17.53C12.18 17.24 12.18 16.76 12.47 16.47L16.47 12.47C16.76 12.18 17.24 12.18 17.53 12.47C17.82 12.76 17.82 13.24 17.53 13.53Z" />
</svg>

<?xml version="1.0" encoding="UTF-8"?>
<svg width="24" height="24" viewBox="0 0 24 24" xmlns="http://www.w3.org/2000/svg">
 <path d="m19.83 8.7-4.53-4.53c-0.95-0.95-2.26-1.46-3.6-1.39l-5 0.24c-2 0.09-3.59 1.68-3.69 3.67l-0.24 5c-0.06 1.34 0.44 2.65 1.39 3.6l4.53 4.53c1.86 1.86 4.88 1.86 6.75 0l4.39-4.39c1.87-1.85 1.87-4.87 0-6.73zm-10.33 3.68c-1.58 0-2.88-1.29-2.88-2.88 0-1.59 1.3-2.88 2.88-2.88 1.58 0 2.88 1.29 2.88 2.88 0 1.59-1.3 2.88-2.88 2.88zm8.03 1.15-4 4c-0.15 0.15-0.34 0.22-0.53 0.22s-0.38-0.07-0.53-0.22c-0.29-0.29-0.29-0.77 0-1.06l4-4c0.29-0.29 0.77-0.29 1.06 0s0.29 0.77 0 1.06z"/>
</svg>
